X: 115
T: J'espoir mieulx
N: Derived from Mar3015-Jespoir_mieulx.krn
C: Johannes Martini
%%abc-version 2.0
%%abcx-abcm2ps-target-version 5.9.1 (29 Sep 2008)
%%abc-creator hum2abc beta
%%abcx-conversion-date 2019/02/17 07:19:43
%%abc-edited-by Jesse Rodin
%%abc-edited-by Chris Gage 11-06-2014
%%abcx-initial-encoding-date 2015/03/01/
%%humdrum-veritas 1741708202
%%humdrum-veritas-data 2771379075
%%linebreak <none>
%%barnumbers 0
L: 1/4
M: 2/1
Q: 1/2=120
V: 1 clef=treble
V: 2 clef=treble-8
V: 3 clef=bass
K: C
[V:1] z8 | 
[V:2] z8 | 
[V:3] B,8 | 
[V:1] z8 | 
[V:2] z8 | 
[V:3] C4C4 | 
[V:1] z8 | 
[V:2] B8 | 
[V:3] B,4G,4 | 
[V:1] z8 | 
[V:2] c4c4 | 
[V:3] A,6G,F, | 
[V:1] B8 | 
[V:2] B4G4 | 
[V:3] E,4G,4 | 
[V:1] c4c4 | 
[V:2] A6GF | 
[V:3] F,4F,4 | 
[V:1] B4G4 | 
[V:2] E4G4 | 
[V:3] G,6F,E, | 
[V:1] A6GF | 
[V:2] F4F4 | 
[V:3] D,8 | 
[V:1] E4G4 | 
[V:2] G6FE | 
[V:3] C,8 | 
[V:1] F4F4 | 
[V:2] D8 | 
[V:3] z4F,4 | 
[V:1] G6FE | 
[V:2] C4z4 | 
[V:3] E,4G,4- | 
[V:1] D8 | 
[V:2] z4G4 | 
[V:3] G,2A,2B,4 | 
[V:1] C4z4 | 
[V:2] E2F2G2A2- | 
[V:3] C4B,2C2- | 
[V:1] z4G4 | 
[V:2] A2GFE4 | 
[V:3] C2B,A,G,4 | 
[V:1] E2F2G2A2- | 
[V:2] A4G2c2- | 
[V:3] C,2D,2E,2F,2 | 
[V:1] A2GFE4 | 
[V:2] cAB2c4 | 
[V:3] D,4C,4 | 
[V:1] A4G2c2- | 
[V:2] A2c2B2A2- | 
[V:3] F,4G,2F,2- | 
[V:1] cAB2c2A2- | 
[V:2] A2G2E2F2- | 
[V:3] F,2E,2C,2D,2- | 
[V:1] A2G2E2F2- | 
[V:2] F2E4D2 | 
[V:3] D,A,,C,4z2 | 
[V:1] FEE4D2 | 
[V:2] E2G2F4 | 
[V:3] G,4A,4 | 
[V:1] E8 | 
[V:2] E8- | 
[V:3] B,3A,B,2C2- | 
[V:1] z4G4 | 
[V:2] E8 | 
[V:3] C2B,A,G,4 | 
[V:1] A4B3A | 
[V:2] z8 | 
[V:3] C4D3C | 
[V:1] B2c4BA | 
[V:2] z8 | 
[V:3] D2E4DC | 
[V:1] G4c4 | 
[V:2] G4A4 | 
[V:3] B,2D2C3B, | 
[V:1] d3cd2e2- | 
[V:2] B3AB2c2- | 
[V:3] G,4z2C,2- | 
[V:1] e2dcB4 | 
[V:2] c2BAG4 | 
[V:3] C,2D,2E,4- | 
[V:1] G2A3GFE | 
[V:2] c4d3c | 
[V:3] E,2F,4D,2- | 
[V:1] F2G4FE | 
[V:2] d2e4dc | 
[V:3] D,2C,2E,2F,2 | 
[V:1] D4E2G2- | 
[V:2] B4c4 | 
[V:3] G,4C,2E,2- | 
[V:1] G2F2A4 | 
[V:2] B2d4c2 | 
[V:3] E,2D,2F,4 | 
[V:1] G2B4A2- | 
[V:2] e4d2c2 | 
[V:3] E,4z4 | 
[V:1] A2G2A4 | 
[V:2] B4A4 | 
[V:3] E,4F,4 | 
[V:1] B4c4 | 
[V:2] z8 | 
[V:3] G,4F,2A,2- | 
[V:1] d4c2e2- | 
[V:2] B4c4 | 
[V:3] A,2G,2A,4 | 
[V:1] e2d2e4 | 
[V:2] d4c2e2- | 
[V:3] D,4z2C,2 | 
[V:1] A4G2c2- | 
[V:2] e2d2e4 | 
[V:3] F,4E,2A,2- | 
[V:1] cBAGB2A2- | 
[V:2] A2c2d2f2- | 
[V:3] A,G,F,E,D,4 | 
[V:1] AGFEF4 | 
[V:2] fedcd4 | 
[V:3] C,2D,2_B,,2D,2 | 
[V:1] !fermata!E8 | 
[V:2] !fermata!e8 | 
[V:3] !fermata!A,,8 | 
[V:1] z8 | 
[V:2] E4E4- | 
[V:3] C,6G,2- | 
[V:1] z8 | 
[V:2] E2F2G4 | 
[V:3] G,2A,2B,4 | 
[V:1] z8 | 
[V:2] A4G2E2- | 
[V:3] C4B,2G,2- | 
[V:1] z8 | 
[V:2] E2DCD4 | 
[V:3] G,2C4B,2 | 
[V:1] E4E4- | 
[V:2] C4z2c2 | 
[V:3] C4C,4 | 
[V:1] E2F2G4 | 
[V:2] B2A3GG2- | 
[V:3] z2D,2E,4 | 
[V:1] A4G2E2- | 
[V:2] G2^F2G3A | 
[V:3] D,4z2C,2 | 
[V:1] E2DCD4 | 
[V:2] B2c4B2 | 
[V:3] G,2A,2G,4 | 
[V:1] C2c2B2A2- | 
[V:2] c4z4 | 
[V:3] z2A,2G,2C2- | 
[V:1] AGG4^F2 | 
[V:2] C4D4 | 
[V:3] C2B,2A,4 | 
[V:1] G4z4 | 
[V:2] E4G4 | 
[V:3] G,4B,4 | 
[V:1] C4D4 | 
[V:2] F4F4 | 
[V:3] A,4A,4 | 
[V:1] E4G4 | 
[V:2] E4z2c2- | 
[V:3] G,4E,4 | 
[V:1] F4F4 | 
[V:2] c2BAB4 | 
[V:3] D,8 | 
[V:1] E4z2c2- | 
[V:2] c4d2e2- | 
[V:3] C,8 | 
[V:1] c2BAB4 | 
[V:2] e2dcd4 | 
[V:3] G,8 | 
[V:1] c4d2e2- | 
[V:2] z2A2B2c2- | 
[V:3] F,4D,2C,2- | 
[V:1] e2dcd4 | 
[V:2] c2BAG4 | 
[V:3] C,2D,2B,,4 | 
[V:1] z2A2B2c2- | 
[V:2] A2c2d2e2- | 
[V:3] A,,4z2A,,2 | 
[V:1] c2A4G2 | 
[V:2] e2dcB4 | 
[V:3] C,2D,2E,4 | 
[V:1] A4D4 | 
[V:2] A4B4 | 
[V:3] z2A,4G,2 | 
[V:1] z2A4G2 | 
[V:2] c4d4 | 
[V:3] A,2C4B,2 | 
[V:1] A2c4B2 | 
[V:2] z2A4G2 | 
[V:3] A,2F,2G,2E,2 | 
[V:1] A2F2G2E2 | 
[V:2] A2c4B2 | 
[V:3] F,4E,4 | 
[V:1] F4E4 | 
[V:2] A2F2G2E2 | 
[V:3] z2D,2E,2G,2 | 
[V:1] A4G2E2- | 
[V:2] F4E4 | 
[V:3] D,2F,2C,4 | 
[V:1] E2F2E2DC | 
[V:2] A4G2E2 | 
[V:3] A,,3B,,C,3D, | 
[V:1] B,2E4D2 | 
[V:2] G2A2F4 | 
[V:3] E,2A,,2D,4 | 
[V:1] E8 |]  
[V:2] E8 |]  
[V:3] A,,8 |]  



